X:1
T:Title
%%score { ( 1 3 5 ) | ( 2 4 6 ) }
L:1/8
M:3/4
K:Ab
V:1 treble nm="Grand Piano"
V:3 treble 
V:5 treble 
V:2 bass 
V:4 bass 
V:6 bass 
V:1
 z2 z2[Q:1/4=100] c2 | c2- [Ac-]2 [Gc]2 | c6 | c6 | d6 | d6 | d6 | d6 | c6 | c6 | c6 | z2 e4 | d6 | %13
 [Af]2 e2 d2 | z2 c4 | d6 |[M:2/4] [Ac]4 |[M:1/4] [CE]E |[M:3/4] c2 c2 d2 | d c3 AB | c2 A2 F2 | %21
 E4 EE | E2 A2 B2 | [Fd] [Ec]3 [Ec][Fc] | [=Dc]2 [DB]2 [Dc]2 | B4 ee | e2 =d2 _d2 | d c3 AB | %28
 c2 d2 e2 | [Af]4 [FA][=EB] | c4 Ac | B2 A2 G2 |[M:2/4] [CA]4 |] %33
V:2
 z2 z2 EE | z6 | F2 z2 z2 | [A,,A,]6 | [E,B,]4 EE | [E,B,]6 | B,4 z2 | D2 z2 z2 | [A,,A,]4 EE | %9
 z6 | F2 z2 z2 | A,6 | [D,A,]4[K:treble] FF | z2[K:treble] G2 F2 | z2 E2 z2 | [E,B,]6 | %16
[M:2/4] [A,,E,A,]4 |[M:1/4] [A,,A,][C,A,C] |[M:3/4] [E,A,E]2[K:treble] [A,E]2 [A,F]2 | %19
 [A,F] [A,E]3 A,[K:bass]B, | C2 A,2 F,2 | E,4 [E,G,][E,G,D] | [A,C]2 [A,C]2 [E,G,D]2 | %23
 [A,,A,] [A,,A,]3 [A,,A,][A,,A,] | [B,,A,]2 [B,,A,]2 [B,,F,]2 | [E,G,E]4 [E,G,E][E,G,E] | %26
 [E,G,E]2 [F,A,=D]2[K:treble] [G,B,_D]2 | [G,B,D] [A,C]3 [A,C][A,DA] | [A,EA]2 [A,FA]2 [A,CA]2 | %29
 [D,D]4 [D,D][D,A,] | [E,A,E]4 [E,A,C][E,A,E] | [E,G,D]2 [E,C]2 [E,B,]2 |[M:2/4] [A,,E,]4 |] %33
V:3
 x6 | E2 z2 z2 | z2 E2 CD | E2 A2 F2 | G4 z2 | B2 A2 G2 | G2 F2 z C | z2 G2 F2 | E4 z2 | E2 A2 G2 | %10
 z2 E2 CD | [Ec]2 _G2 z2 | F4 z2 | x6 | [Fd]2 z2 AA | G2 F2 G2 |[M:2/4] x4 |[M:1/4] x2 | %18
[M:3/4] x6 | x6 | x6 | x6 | x6 | x6 | x6 | x6 | x6 | x6 | x6 | x6 | x6 | x6 |[M:2/4] x4 |] %33
V:4
 x6 | [A,,A,]6- | [A,,A,]6 | x6 | x6 | x6 | E,6 | [E,G,]6 | x6 | [A,,A,]6- | [A,,A,]6 | %11
 A,,2 z2 _G2 | x4[K:treble] x2 | [D,A,]6[K:treble] | [A,,A,]6 | x6 |[M:2/4] x4 |[M:1/4] x2 | %18
[M:3/4] x2[K:treble] x4 | x5[K:bass] x | x6 | x6 | x6 | x6 | x6 | x6 | x4[K:treble] x2 | x6 | x6 | %29
 x6 | x6 | x6 |[M:2/4] x4 |] %33
V:5
 x6 | x6 | x6 | x6 | x6 | x6 | z2 z2 B,2 | x6 | x6 | x6 | x6 | x6 | x6 | x6 | x6 | x6 |[M:2/4] x4 | %17
[M:1/4] x2 |[M:3/4] x6 | x6 | x6 | x6 | x6 | x6 | x6 | x6 | x6 | x6 | x6 | x6 | x6 | x6 | %32
[M:2/4] x4 |] %33
V:6
 x6 | x6 | x6 | x6 | x6 | x6 | x6 | x6 | x6 | x6 | x6 | z2 C,4 | x4[K:treble] x2 | %13
 x2[K:treble] x4 | x6 | x6 |[M:2/4] x4 |[M:1/4] x2 |[M:3/4] x2[K:treble] x4 | x5[K:bass] x | x6 | %21
 x6 | x6 | x6 | x6 | x6 | x4[K:treble] x2 | x6 | x6 | x6 | x6 | x6 |[M:2/4] x4 |] %33

